material/.icons/material/function.svg

<svg xmlns="http://www.w3.org/2000/svg" viewBox="0 0 24 24"><path d="M15.6 5.29c-1.1-.1-2.07.71-2.17 1.82L13.18 10H16v2h-3l-.44 5.07a3.986 3.986 0 01-4.33 3.63 4.007 4.007 0 01-3.06-1.87l1.5-1.5c.24.74.9 1.31 1.73 1.38 1.1.1 2.07-.71 2.17-1.82L11 12H8v-2h3.17l.27-3.07c.19-2.2 2.13-3.83 4.33-3.63 1.31.11 2.41.84 3.06 1.87l-1.5 1.5c-.24-.74-.9-1.31-1.73-1.38z"/></svg>

<?xml version="1.0" encoding="UTF-8"?><!DOCTYPE svg PUBLIC "-//W3C//DTD SVG 1.1//EN" "http://www.w3.org/Graphics/SVG/1.1/DTD/svg11.dtd"><svg xmlns="http://www.w3.org/2000/svg" xmlns:xlink="http://www.w3.org/1999/xlink" version="1.1" id="mdi-function" width="24" height="24" viewBox="0 0 24 24"><path d="M15.6,5.29C14.5,5.19 13.53,6 13.43,7.11L13.18,10H16V12H13L12.56,17.07C12.37,19.27 10.43,20.9 8.23,20.7C6.92,20.59 5.82,19.86 5.17,18.83L6.67,17.33C6.91,18.07 7.57,18.64 8.4,18.71C9.5,18.81 10.47,18 10.57,16.89L11,12H8V10H11.17L11.44,6.93C11.63,4.73 13.57,3.1 15.77,3.3C17.08,3.41 18.18,4.14 18.83,5.17L17.33,6.67C17.09,5.93 16.43,5.36 15.6,5.29Z" /></svg>
